src/svg/bullseye.svg

<svg height="1000" width="857.143" xmlns="http://www.w3.org/2000/svg"><path d="M571.392 500.032q0 59.148 -41.85 100.998t-100.998 41.85 -100.998 -41.85 -41.85 -100.998 41.85 -100.998 100.998 -41.85 100.998 41.85 41.85 100.998zm71.424 0q0 -88.722 -62.775 -151.497t-151.497 -62.775 -151.497 62.775 -62.775 151.497 62.775 151.497 151.497 62.775 151.497 -62.775 62.775 -151.497zm71.424 0q0 118.296 -83.7 201.996t-201.996 83.7 -201.996 -83.7 -83.7 -201.996 83.7 -201.996 201.996 -83.7 201.996 83.7 83.7 201.996zm71.424 0q0 -72.54 -28.458 -138.663t-76.167 -113.832 -113.832 -76.167 -138.663 -28.458 -138.663 28.458 -113.832 76.167 -76.167 113.832 -28.458 138.663 28.458 138.663 76.167 113.832 113.832 76.167 138.663 28.458 138.663 -28.458 113.832 -76.167 76.167 -113.832 28.458 -138.663zm71.424 0q0 116.622 -57.474 215.109t-155.961 155.961 -215.109 57.474 -215.109 -57.474 -155.961 -155.961 -57.474 -215.109 57.474 -215.109 155.961 -155.961 215.109 -57.474 215.109 57.474 155.961 155.961 57.474 215.109z"/></svg>

<svg height="1000" width="857.1" xmlns="http://www.w3.org/2000/svg"><path d="M571.4 500q0 59.2 -41.8 101t-101 41.9T327.6 601 285.7 500t41.9 -101 101 -41.9 101 41.9 41.8 101zm71.5 0q0 -88.7 -62.8 -151.5T428.6 285.7t-151.5 62.8T214.3 500t62.8 151.5 151.5 62.8 151.5 -62.8T642.9 500zm71.4 0q0 118.3 -83.7 202t-202 83.7T226.6 702 142.9 500t83.7 -202 202 -83.7 202 83.7 83.7 202zm71.4 0q0 -72.5 -28.4 -138.7T681.1 247.5 567.2 171.3 428.6 142.9t-138.7 28.4 -113.8 76.2T99.9 361.3 71.4 500t28.5 138.7 76.2 113.8 113.8 76.2 138.7 28.4 138.6 -28.4 113.9 -76.2 76.2 -113.8T785.7 500zm71.4 0q0 116.6 -57.4 215.1t-156 156 -215.1 57.5T213.4 871.1 57.5 715.1 0 500 57.5 284.9t155.9 -156T428.6 71.4t215.1 57.5 156 156T857.1 500z"/></svg>
